dist/assets/instagram-icon.svg

<?xml version="1.0" encoding="UTF-8" standalone="no"?>
<!-- Uploaded to: SVG Repo, www.svgrepo.com, Generator: SVG Repo Mixer Tools -->
<svg viewBox="0 0 20 20" version="1.1" xmlns="http://www.w3.org/2000/svg" xmlns:xlink="http://www.w3.org/1999/xlink">
<style type="text/css">
	.svg-ic{fill:#09272a;}
</style>
    <g id="Page-1" stroke="none" stroke-width="1" fill="none" fill-rule="evenodd">
        <g id="Dribbble-Light-Preview" transform="translate(-340.000000, -7439.000000)" fill="#000000">
            <g id="icons" transform="translate(56.000000, 160.000000)">
                <path class="svg-ic" d="M289.869652,7279.12273 C288.241769,7279.19618 286.830805,7279.5942 285.691486,7280.72871 C284.548187,7281.86918 284.155147,7283.28558 284.081514,7284.89653 C284.035742,7285.90201 283.768077,7293.49818 284.544207,7295.49028 C285.067597,7296.83422 286.098457,7297.86749 287.454694,7298.39256 C288.087538,7298.63872 288.809936,7298.80547 289.869652,7298.85411 C298.730467,7299.25511 302.015089,7299.03674 303.400182,7295.49028 C303.645956,7294.859 303.815113,7294.1374 303.86188,7293.08031 C304.26686,7284.19677 303.796207,7282.27117 302.251908,7280.72871 C301.027016,7279.50685 299.5862,7278.67508 289.869652,7279.12273 M289.951245,7297.06748 C288.981083,7297.0238 288.454707,7296.86201 288.103459,7296.72603 C287.219865,7296.3826 286.556174,7295.72155 286.214876,7294.84312 C285.623823,7293.32944 285.819846,7286.14023 285.872583,7284.97693 C285.924325,7283.83745 286.155174,7282.79624 286.959165,7281.99226 C287.954203,7280.99968 289.239792,7280.51332 297.993144,7280.90837 C299.135448,7280.95998 300.179243,7281.19026 300.985224,7281.99226 C301.980262,7282.98483 302.473801,7284.28014 302.071806,7292.99991 C302.028024,7293.96767 301.865833,7294.49274 301.729513,7294.84312 C300.829003,7297.15085 298.757333,7297.47145 289.951245,7297.06748 M298.089663,7283.68956 C298.089663,7284.34665 298.623998,7284.88065 299.283709,7284.88065 C299.943419,7284.88065 300.47875,7284.34665 300.47875,7283.68956 C300.47875,7283.03248 299.943419,7282.49847 299.283709,7282.49847 C298.623998,7282.49847 298.089663,7283.03248 298.089663,7283.68956 M288.862673,7288.98792 C288.862673,7291.80286 291.150266,7294.08479 293.972194,7294.08479 C296.794123,7294.08479 299.081716,7291.80286 299.081716,7288.98792 C299.081716,7286.17298 296.794123,7283.89205 293.972194,7283.89205 C291.150266,7283.89205 288.862673,7286.17298 288.862673,7288.98792 M290.655732,7288.98792 C290.655732,7287.16159 292.140329,7285.67967 293.972194,7285.67967 C295.80406,7285.67967 297.288657,7287.16159 297.288657,7288.98792 C297.288657,7290.81525 295.80406,7292.29716 293.972194,7292.29716 C292.140329,7292.29716 290.655732,7290.81525 290.655732,7288.98792" id="instagram-[#167]">

</path>
            </g>
        </g>
    </g>
</svg>

<svg viewBox="0 0 20 20" xmlns="http://www.w3.org/2000/svg"><path d="M289.87 7279.123c-1.628.073-3.04.471-4.179 1.606-1.143 1.14-1.536 2.557-1.61 4.168-.045 1.005-.313 8.601.463 10.593a5.04 5.04 0 0 0 2.91 2.903c.634.246 1.356.412 2.416.461 8.86.401 12.145.183 13.53-3.364.246-.631.415-1.353.462-2.41.405-8.883-.066-10.809-1.61-12.351-1.225-1.222-2.666-2.054-12.382-1.606m.081 17.944c-.97-.043-1.496-.205-1.848-.341a3.255 3.255 0 0 1-1.888-1.883c-.591-1.514-.395-8.703-.342-9.866.051-1.14.282-2.18 1.086-2.985.995-.992 2.28-1.479 11.034-1.084 1.142.052 2.186.282 2.992 1.084.995.993 1.489 2.288 1.087 11.008-.044.968-.206 1.493-.342 1.843-.901 2.308-2.973 2.628-11.779 2.224m8.139-13.377c0 .657.534 1.19 1.194 1.19.66 0 1.195-.533 1.195-1.19a1.194 1.194 0 0 0-2.39 0m-9.226 5.298a5.103 5.103 0 0 0 5.11 5.097 5.103 5.103 0 0 0 5.109-5.097 5.102 5.102 0 0 0-5.11-5.096 5.102 5.102 0 0 0-5.11 5.096m1.794 0a3.313 3.313 0 0 1 3.316-3.308 3.313 3.313 0 0 1 3.317 3.308 3.313 3.313 0 0 1-3.317 3.31 3.313 3.313 0 0 1-3.316-3.31" style="fill:#09272a" transform="translate(-284 -7279)" fill-rule="evenodd"/></svg>
